X:2372
T:Bwoaill baccagh 
C:Traditional
O:Isle of Man
N:See also KV20,258
Z:Kiaull Vannin 372 
M:3/4 
L:1/8 
K:G 
d2 dB dg|d2 dB dg|d2 dB cA|BG GB AG|d2 dB dg|d2 dB dg|d2 dB cA|G6|
{B}G6|{B}G6|{B}G6|{B}G6| {B}G6|{B}G6|B2 c2 d2|G6|g2 G4| 
G2 Bd dA|G2 Bd dA|G2 Bd dA|BG AD EF|G2 Bd dA|G2 Bd dA|G2 Bd dA|BG AD EF|G6|| 

